src/DGGeoclicker/skin/dark/img/DGFirmCard__mailIcon_dark.svg

<svg xmlns="http://www.w3.org/2000/svg" width="11" height="7"><path fill-rule="evenodd" clip-rule="evenodd" fill="#aaa" d="M11 1.555v3.89c0 .858-.758 1.555-1.691 1.555h-7.617c-.934 0-1.692-.697-1.692-1.556v-3.89l5.5 3.272 5.5-3.271zm-10.809-1.555h10.616999999999999l-5.308 3.111-5.309-3.111z"/></svg>

<svg xmlns="http://www.w3.org/2000/svg" width="11" height="7">
    <path d="m 11,1.555 v 3.89 C 11,6.303 10.242,7 9.309,7 H 1.692 C 0.758,7 0,6.303 0,5.444 V 1.554 L 5.5,4.826 11,1.555 z M 0.191,0 H 10.808 L 5.5,3.111 0.191,0 z" fill="#aaa" fill-rule="evenodd"/>
</svg>
